X:1
T:Unser Bier hat noch immer schön' Schaum
T:sehr frei nach Verdis Gefangenenchor aus Nabucco
T:Takte 64/65 68/69 rhythmisch etwas verändert
L:1/8
Q:1/4=80
M:6/8
K:G
V:1 treble nm="Stimme" snm="St."
V:1
!f! B2 A | G3 D2 d | d3 B2 G | (GFA c3- | c2) z D2 D | D3 G2 B | (B2 A) B2 A | (G3 F3- | %8
w: Un- ser|Bier hat noch|im- mer schön|Schaum, _ _ _|_ un ser|Bier hat noch|im- * mer schön|Schaum, _|
 F2) z B2 A | G3 D2 d | d3 B2 G | (GFA c3- | c2) z D2 D | D G B d c A | G3 (FB) A | G6- | %16
w: _ un- ser|Bier hat noch|im- mer schön|Schaum, _ _ _|_ un- ser|Bier hat noch im- mer schön|Schaum, schö- * nen|Schaum.|
 G2 z B2 B | A3 (^cB) A | G3 (BA) G | (F2 G A3- | A2) z B2 ^c | d3 ^c2 B | B A ^G B A =G | %23
w: _ Un- ser|Bier hat * noch|im- mer _ schön|Schaum, _ _|_ un- ser|Bier hat noch|im- mer schön Schaum, schö- nen|
 (F2 E D3- | D2) z B2 A | G3 D2 d | d3 B2 G | (GFA c3- | c2) z D2 D | D G B d c A | G3 (FB) A | %31
w: Schaum. _ _|_ Un- ser|Bier hat noch|im- mer schön|Schaum, _ _ _|_ un- ser|Bier hat noch im- mer schön|Schaum, schö- * nen|
 G6- | G2 z!ff! d2 d | f3 f2 f | f3 (fe) d | ^c3 (Bc) d | A3 z!p! A A | .G z2 .G z .G | %38
w: Schaum.|_ Un- ser|Bier hat noch|im- mer _ schön|Schaum, schö- * nen|Schaum, un- ser|Bier hat noch|
 .G z2 .G z .G |!<(! (B3!<)!!>(! A3- | A2)!>)! z!ff! A2 A | f3 f2 f | f3 (fe) d | ^c3 (Bc) d | %44
w: im- mer schön|Schaum ,|_ un- ser|Bier hat noch|im- mer * schön|Schaum, schö- * nen|
 A3 z!p! A A | .G z2 .G z .G | .G z2 (.G.B) A | F6- | F2 z!mf! D2 D | c3 c2 c | _B3 B2 B | (A6 | %52
w: Schaum, un- ser|Bier hat noch|im- mer _ schön|Schaum.|_ Un- ser|Bier hat noch|im- mer schön|Schaum,|
 D3) D2 D | c3 c2 c | _B3 B2 B | (A6 | D3)!f! B2 A | G3 D2 d | d3 B2 G | (GFA c3- | c2) z D2 D | %61
w: _ un- ser|Bier hat noch|im- mer schön|Schaum.|_ Un- ser|Bier hat noch|im- mer schön|Schaum, _ _ _|_ un- ser|
 D G B d c A | G3 (FB) A | G3!ff! B3 | B3 B3 | e6- | e d c B c A | G3 B3 | B3 B3 | e6- | %70
w: Bier hat noch im- mer schön|Schaum, schö- * nen|Schaum. Ja|un- ser|Bier|_ hat noch im- mer schön|Schaum, ja|un- ser|Bier|
 e d c B c A | G2 z!p! .[GB] z .[GB] | .[GB] z2 .[GB] z .[GB] |!<(! [GB]6-!<)! | %74
w: _ hat noch im- mer schön|Schaum, schö- nen|Schaum, schö- nen|Schaum!|
!>(! [GB]2!>)! z4 |] %75
w: _|

